libs/icons/svgs/column.svg

<svg xmlns="http://www.w3.org/2000/svg" viewBox="0 0 24 24">
  <path  d="M15,4h-6c-1.1,0-2,.9-2,2v12c0,1.1.9,2,2,2h6c1.1,0,2-.9,2-2V6c0-1.1-.9-2-2-2ZM15,18h-6v-4h6v4ZM15,12h-6v-4h6v4Z"/>
</svg>

<svg xmlns="http://www.w3.org/2000/svg" width="24" height="24">
    <path d="M15,4H9C7.9,4,7,4.9,7,6v12c0,1.1,0.9,2,2,2h6c1.1,0,2-0.9,2-2V6C17,4.9,16.1,4,15,4z M15,18H9v-4h6V18z M15,12H9V8h6V12z" />
</svg>
